X: 1
T: The Humours Of Trim
R: jig
M: 6/8
L: 1/8
K: Dmaj
|:FEF DED| D2d cAG|FEF FED|A2F GFE|
FEF DED|D2d cAG|FAF GBG|A2F GFE:|
D2d cAd| cAd cAG|FEF cAd|A2F GFE|
D2d cAd|fed cAG|FAF GBG|A2F GFE:|


Tune 88	Setting 30116

